X: 13275
T: Five Points, The
R: reel
M: 4/4
K: Dmajor
|:DE|{G}F2 F/F/F (FE)DE|F2AF BFAF|{G}F2 F/F/F dBAF|E2EF GFEA|
{G}F2 F/F/F FEDE|FABA d2de|fdBd AdBA|FAEA D2:|
|:fg|a2 a/a/a afed|BdAd BdAf|a2 a/a/a afef|affa b2ag|
a2 a/a/a afed|BdAd B2de|fdBd AdBA|FAEA D2:|

